X:1
T:Valse in E Flat
T:Valse in E Flat
T:BI 133 Paris 1830
T:Frédéric Chopin
T:Public Domain
C:Frédéric Chopin
Z:Public Domain
%%score { ( 1 3 ) | 2 }
L:1/8
Q:1/4=100
M:3/4
K:Eb
V:1 treble nm="Piano" snm="Pno."
V:3 treble 
V:2 bass 
V:1
"^Sostenuto" (B,2 | G2 ^FGcB | B4 A2) | (G2 ^FG{/B}A>G | G4 F2) | (E2 FECE | B,EGBec | B=A_AB,Fc | %8
 B=A_AB,EF) | (G2 ^FGc>B | B4 A2) | (G2 ^FG{/B}A>G | G4 F>E | E2 FE_CE | B,EGBg[=Ac] | %15
 [_Af][G=B][Ac][=EG][FA][A,D] | [G,_E]2) z2 :| z2 |: z2 =B4 | z2 (c2 de) | z2 [D_AB]2 [DAB]2 | %21
 z2 [EGB]2 [EGB]2 | z2 ([FGd]2 [FG]2) | z2 (c2 d>e |{/d} [_Adg]4 [Ad]2 |1 [Ge]2) z2 [GB]2 :|2 %26
 ([Ge]2 z2) |] %27
V:2
 z2 | z2 [E,B,]2 [E,B,]2 | z2 B,,2 [F,B,D]2 | z2 [E,B,E]2 [E,B,]2 | z2 [D,G,=B,]2 G,,2 | %5
 z2 [C,G,]2 [=A,,^F,]2 | B,,2 [G,B,E]2 z2 | B,,2 [F,A,D]2 [F,A,D]2 | B,,2 [F,A,D]2 z2 | %9
 E,,2 [E,B,]2 [E,B,]2 | z2 [F,B,D]2 B,,2 | z2 [E,B,E]2 [E,B,E]2 | z2 [E,B,_D]2 [E,G,D]2 | %13
 A,,2 [E,A,C]2 [E,A,]2 | B,,2 [G,B,E]2 z2 | B,,,2 [F,B,D]2 B,,2 | E,,2 [B,,G,]2 :| (FE |: D3 G,CD | %19
 E3 EDC |{/B,,} CB,=A,B,CB, |{/E,} CB,=A,B,{/D}C>B, | =B,3) (G,,CD | E3 EDC |{/B,,} CB,=A,B,GF |1 %25
 E2) (E,B,FE) :|2 (E2 E,,2) |] %27
V:3
 x2 | x6 | x6 | x6 | x6 | x6 | x6 | x6 | x6 | x6 | x6 | x6 | x6 | x6 | x6 | x6 | x4 :| x2 |: %18
 x2 [FG]2 [FG]2 | x2 [_G=A]4 | x6 | x6 | x6 | x2 [_G=A]2 [GA]2 | x6 |1 x6 :|2 x4 |] %27

